coreui/free/cil-applications-settings.svg

<svg xmlns="http://www.w3.org/2000/svg" viewBox="0 0 512 512">
  <path fill="var(--ci-primary-color, currentColor)" d="M88,160A64,64,0,1,0,24,96,64.072,64.072,0,0,0,88,160Zm0-96A32,32,0,1,1,56,96,32.036,32.036,0,0,1,88,64Z" class="ci-primary"/>
  <path fill="var(--ci-primary-color, currentColor)" d="M256,32a64,64,0,1,0,64,64A64.072,64.072,0,0,0,256,32Zm0,96a32,32,0,1,1,32-32A32.036,32.036,0,0,1,256,128Z" class="ci-primary"/>
  <path fill="var(--ci-primary-color, currentColor)" d="M424,160a64,64,0,1,0-64-64A64.072,64.072,0,0,0,424,160Zm0-96a32,32,0,1,1-32,32A32.036,32.036,0,0,1,424,64Z" class="ci-primary"/>
  <path fill="var(--ci-primary-color, currentColor)" d="M88,192a64,64,0,1,0,64,64A64.072,64.072,0,0,0,88,192Zm0,96a32,32,0,1,1,32-32A32.036,32.036,0,0,1,88,288Z" class="ci-primary"/>
  <path fill="var(--ci-primary-color, currentColor)" d="M256,192a64,64,0,1,0,64,64A64.072,64.072,0,0,0,256,192Zm0,96a32,32,0,1,1,32-32A32.036,32.036,0,0,1,256,288Z" class="ci-primary"/>
  <path fill="var(--ci-primary-color, currentColor)" d="M424,192a64,64,0,1,0,64,64A64.072,64.072,0,0,0,424,192Zm0,96a32,32,0,1,1,32-32A32.036,32.036,0,0,1,424,288Z" class="ci-primary"/>
  <path fill="var(--ci-primary-color, currentColor)" d="M424,352a64,64,0,1,0,64,64A64.072,64.072,0,0,0,424,352Zm0,96a32,32,0,1,1,32-32A32.036,32.036,0,0,1,424,448Z" class="ci-primary"/>
  <rect width="32" height="32" x="56" y="408" fill="var(--ci-primary-color, currentColor)" class="ci-primary"/>
  <rect width="32" height="32" x="152" y="408" fill="var(--ci-primary-color, currentColor)" class="ci-primary"/>
  <rect width="32" height="32" x="248" y="408" fill="var(--ci-primary-color, currentColor)" class="ci-primary"/>
</svg>

<svg viewBox="0 0 512 512" xmlns="http://www.w3.org/2000/svg"><g><path d="M88 160v0c35.34 0 64-28.66 64-64 0-35.35-28.66-64-64-64 -35.35 0-64 28.65-64 64v0c.03 35.32 28.67 63.96 64 64Zm0-96v0c17.67 0 32 14.32 32 32 0 17.67-14.33 32-32 32 -17.68 0-32-14.33-32-32v0c.01-17.67 14.33-31.99 32-32Z"/><path d="M256 32v0c-35.35 0-64 28.65-64 64 0 35.34 28.65 64 64 64 35.34 0 64-28.66 64-64v0c-.04-35.33-28.68-63.97-64-64Zm0 96v0c-17.68 0-32-14.33-32-32 0-17.68 14.32-32 32-32 17.67 0 32 14.32 32 32v0c-.02 17.66-14.34 31.98-32 32Z"/><path d="M424 160v0c35.34 0 64-28.66 64-64 0-35.35-28.66-64-64-64 -35.35 0-64 28.65-64 64v0c.03 35.32 28.67 63.96 64 64Zm0-96v0c17.67 0 32 14.32 32 32 0 17.67-14.33 32-32 32 -17.68 0-32-14.33-32-32v0c.01-17.67 14.33-31.99 32-32Z"/><path d="M88 192v0c-35.35 0-64 28.65-64 64 0 35.34 28.65 64 64 64 35.34 0 64-28.66 64-64v0c-.04-35.33-28.68-63.97-64-64Zm0 96v0c-17.68 0-32-14.33-32-32 0-17.68 14.32-32 32-32 17.67 0 32 14.32 32 32v0c-.02 17.66-14.34 31.98-32 32Z"/><path d="M256 192v0c-35.35 0-64 28.65-64 64 0 35.34 28.65 64 64 64 35.34 0 64-28.66 64-64v0c-.04-35.33-28.68-63.97-64-64Zm0 96v0c-17.68 0-32-14.33-32-32 0-17.68 14.32-32 32-32 17.67 0 32 14.32 32 32v0c-.02 17.66-14.34 31.98-32 32Z"/><path d="M424 192v0c-35.35 0-64 28.65-64 64 0 35.34 28.65 64 64 64 35.34 0 64-28.66 64-64v0c-.04-35.33-28.68-63.97-64-64Zm0 96v0c-17.68 0-32-14.33-32-32 0-17.68 14.32-32 32-32 17.67 0 32 14.32 32 32v0c-.02 17.66-14.34 31.98-32 32Z"/><path d="M424 352v0c-35.35 0-64 28.65-64 64 0 35.34 28.65 64 64 64 35.34 0 64-28.66 64-64v0c-.04-35.33-28.68-63.97-64-64Zm0 96v0c-17.68 0-32-14.33-32-32 0-17.68 14.32-32 32-32 17.67 0 32 14.32 32 32v-.001c-.02 17.66-14.34 31.98-32 32Z"/><path d="M56 408h32v32H56Z"/><path d="M152 408h32v32h-32Z"/><path d="M248 408h32v32h-32Z"/></g></svg>
